skype.svg

<svg xmlns="http://www.w3.org/2000/svg" width="22" height="22"><path fill-rule="evenodd" d="M21.48 13.56c-.07-.15-.1-.29-.07-.46.26-1.22.27-2.46.06-3.69-.91-5.46-6.13-9.29-11.67-8.55-.32.04-.59-.01-.88-.16-2.34-1.23-5.21-.81-7.11 1.04-1.88 1.81-2.35 4.65-1.15 6.96.13.24.17.46.11.73-.12.56-.13 1.13-.15 1.72.02.33.02.68.06 1.04.63 5.91 6.12 10.06 12.1 9.14.19-.03.34 0 .5.08 1.13.56 2.35.7 3.57.51 4-.63 6.23-4.68 4.63-8.36zm-5.22 2.76c-.67.75-1.52 1.24-2.48 1.51-1.8.51-3.62.53-5.41 0-1.64-.49-2.84-1.49-3.32-3.16-.34-1.18.44-2.07 1.63-1.93.52.06.86.37 1.11.79.15.27.27.55.41.83.45.9 1.16 1.4 2.18 1.51.83.09 1.64.04 2.41-.31.3-.13.56-.32.78-.56.58-.66.47-1.59-.24-2.1-.68-.5-1.5-.64-2.3-.81-1.14-.25-2.29-.49-3.36-.96-1.12-.49-2.02-1.2-2.31-2.44-.34-1.44.07-2.65 1.24-3.59 1.03-.82 2.26-1.08 3.55-1.19.29-.03.59-.01.89-.01 1.19-.03 2.34.13 3.41.66.82.42 1.49.98 1.89 1.82.19.41.28.85.16 1.29-.15.53-.52.91-1.08 1.02-.58.11-1.12.02-1.49-.51-.17-.25-.34-.51-.5-.78-.5-.84-1.21-1.3-2.22-1.3-.47 0-.93-.01-1.38.09-.41.1-.78.27-1.09.55-.55.5-.52 1.2.06 1.66.39.3.85.47 1.32.59 1.11.28 2.22.53 3.33.82.6.15 1.18.39 1.74.66 2.59 1.29 2.41 4.35 1.07 5.85z"/></svg>

<?xml version="1.0" encoding="utf-8"?>
<svg xmlns="http://www.w3.org/2000/svg"
	xmlns:xlink="http://www.w3.org/1999/xlink"
	width="22px" height="22px">
<path fill="rgb(0,0,0)" fill-rule="evenodd" d="M 21.48 13.56C 21.41 13.41 21.38 13.27 21.41 13.1 21.67 11.88 21.68 10.64 21.47 9.41 20.56 3.95 15.34 0.12 9.8 0.86 9.48 0.9 9.21 0.85 8.92 0.7 6.58-0.53 3.71-0.11 1.81 1.74-0.07 3.55-0.54 6.39 0.66 8.7 0.79 8.94 0.83 9.16 0.77 9.43 0.65 9.99 0.64 10.56 0.62 11.15 0.64 11.48 0.64 11.83 0.68 12.19 1.31 18.1 6.8 22.25 12.78 21.33 12.97 21.3 13.12 21.33 13.28 21.41 14.41 21.97 15.63 22.11 16.85 21.92 20.85 21.29 23.08 17.24 21.48 13.56ZM 16.26 16.32C 15.59 17.07 14.74 17.56 13.78 17.83 11.98 18.34 10.16 18.36 8.37 17.83 6.73 17.34 5.53 16.34 5.05 14.67 4.71 13.49 5.49 12.6 6.68 12.74 7.2 12.8 7.54 13.11 7.79 13.53 7.94 13.8 8.06 14.08 8.2 14.36 8.65 15.26 9.36 15.76 10.38 15.87 11.21 15.96 12.02 15.91 12.79 15.56 13.09 15.43 13.35 15.24 13.57 15 14.15 14.34 14.04 13.41 13.33 12.9 12.65 12.4 11.83 12.26 11.03 12.09 9.89 11.84 8.74 11.6 7.67 11.13 6.55 10.64 5.65 9.93 5.36 8.69 5.02 7.25 5.43 6.04 6.6 5.1 7.63 4.28 8.86 4.02 10.15 3.91 10.44 3.88 10.74 3.9 11.04 3.9 12.23 3.87 13.38 4.03 14.45 4.56 15.27 4.98 15.94 5.54 16.34 6.38 16.53 6.79 16.62 7.23 16.5 7.67 16.35 8.2 15.98 8.58 15.42 8.69 14.84 8.8 14.3 8.71 13.93 8.18 13.76 7.93 13.59 7.67 13.43 7.4 12.93 6.56 12.22 6.1 11.21 6.1 10.74 6.1 10.28 6.09 9.83 6.19 9.42 6.29 9.05 6.46 8.74 6.74 8.19 7.24 8.22 7.94 8.8 8.4 9.19 8.7 9.65 8.87 10.12 8.99 11.23 9.27 12.34 9.52 13.45 9.81 14.05 9.96 14.63 10.2 15.19 10.47 17.78 11.76 17.6 14.82 16.26 16.32Z"/>
</svg>
